kora/actions/scalable/selection-move-to-layer-below.svg

<svg xmlns="http://www.w3.org/2000/svg" width="16" height="16" viewBox="0 0 16 16">
 <defs>
  <style id="current-color-scheme" type="text/css">
   .ColorScheme-Text { color:#dfdfdf; } .ColorScheme-Highlight { color:#4285f4; }
  </style>
 </defs>
 <path style="fill:currentColor" class="ColorScheme-Text" d="M 1 1 L 4 5 L 12 5 L 12 9.03125 L 10.65625 7.59375 L 10 8.28125 L 12.3125 10.78125 L 12.5 11 L 12.6875 10.78125 L 15 8.28125 L 14.34375 7.59375 L 13 9.03125 L 13 5 L 10 1 L 1 1 z M 1 11 L 4 15 L 13 15 L 10 11 L 1 11 z"/>
</svg>

<svg xmlns="http://www.w3.org/2000/svg" style="fill-rule:evenodd;clip-rule:evenodd;stroke-linejoin:round;stroke-miterlimit:2" width="100%" height="100%" version="1.1" viewBox="0 0 16 16" xml:space="preserve">
 <defs>
  <style id="current-color-scheme" type="text/css">
   .ColorScheme-Text { color:#dfdfdf; } .ColorScheme-Highlight { color:#4285f4; } .ColorScheme-NeutralText { color:#ff9800; } .ColorScheme-PositiveText { color:#4caf50; } .ColorScheme-NegativeText { color:#f44336; }
  </style>
 </defs>
 <path style="fill:currentColor;" class="ColorScheme-Text" d="M1,1l3,3.131l8,0l0,4.9l-1.344,-1.437l-0.656,0.687l2.313,2.5l0.187,0.219l0.188,-0.219l2.312,-2.5l-0.656,-0.687l-1.344,1.437l0,-4.9l-3,-3.131l-9,0Zm0,10l3,3.131l9,0l-3,-3.131l-9,0Z"/>
</svg>
